X: 4
T: The Blackhaired Lass
R: slip jig
M: 9/8
L: 1/8
K: Dmaj
|:FAA FAd AFD|FAA FAd B2A|FAA FAd AFD|EDE DFA B2A|
FAA FAd AFD|FAA FAd B2A|FAA FAd AFD|EDE DFA B2A||
|:f3 faf edB|A2f fef g2e|f3 faf edB|AFE DFA B2A|
f3 faf edB|A2f fef g2e|f3 faf edB|AFE DFA B2A||


Tune 407	Setting 30027

